dist/img/svg/D-big.svg

<svg width="987" height="943" viewBox="0 0 835 843" fill="none" xmlns="http://www.w3.org/2000/svg"><g opacity=".2" clip-path="url(#clip0_94:261)"><mask id="a" style="mask-type:alpha" maskUnits="userSpaceOnUse" x="0" y="-1" width="1408" height="844"><path d="M563.032 230.781h191.196v191.051H563.032V230.781z" fill="#F9E050"/><path d="M281.466 703.18h191.196v139.724H281.466V703.18z" fill="#F4F464"/><path d="M422.248 562.507h191.196v191.05H422.248v-191.05zM0 562.507h140.781v140.674H0V562.507zm281.467-140.484h140.781v140.674H281.467V422.023z" fill="#F4F464"/><path d="M563.031 90.486h191.196v191.05H563.031V90.486z" fill="#F9B038"/><path d="M512.707 0h241.421v140.674H512.707V-.001z" fill="#F6842D"/><path d="M140.783 0h140.781v140.674H140.783V0z" fill="#F9E050"/><path d="M563.031 652.803h191.196v190.101H563.031V652.803z" fill="#F6842D"/><path d="M281.465 140.768h140.781v140.674H281.465V140.768z" fill="#F4F464"/><path d="M702.953 512.129h191.196v191.05H702.953v-191.05z" fill="#F4AC2B"/><path d="M702.953 371.742h191.196v191.051H702.953V371.742z" fill="#F6842D"/><path d="M702.953 230.781h191.196v191.051H702.953V230.781z" fill="#F4AC2B"/><path d="M702.953 90.487h191.196v191.05H702.953V90.487z" fill="#F6842D"/><path d="M703.904 842.904V703.181h139.829V140.674H702.952V0H1080.3c56.7 0 105.78 6.463 147.06 19.485 41.28 12.832 75.15 35.454 101.78 67.77 26.64 32.318 46.61 76.041 59.55 131.17 12.94 54.939 19.31 124.801 19.31 209.776 0 85.735-5.99 155.312-18.07 208.54-12.18 54.178-31.2 96.286-57.08 126.226a189.082 189.082 0 01-99.59 62.923c-40.43 11.406-89.42 17.11-146.77 17.11H843.638l-139.734-.096zm286.603-115.295h91.033c31.39 0 58.59-3.612 81.23-10.836a93.195 93.195 0 0055.84-43.723c14.65-21.862 25.11-52.563 31.58-92.199 7.33-39.636 10.94-92.198 10.94-157.783 0-65.394-3.8-118.337-11.03-158.734-6.38-39.636-16.84-70.717-31.39-93.339a110.347 110.347 0 00-57.08-44.673c-22.83-7.319-49.46-10.931-80.19-10.931h-90.933v612.218z" fill="#F14D34"/><path d="M563.03 562.505h140.781v140.674H563.03V562.505z" fill="#F9E050"/><path d="M422.248 0h140.781v140.674H422.248V0z" fill="#F9B038"/><path d="M422.248 703.18h140.781v139.724H422.248V703.18z" fill="#F9E050"/></mask><g mask="url(#a)"><g filter="url(#filter0_d_94:261)"><path d="M563.032 230.781h191.196v191.051H563.032V230.781z" fill="#F9E050"/><path d="M281.466 703.18h191.196v139.724H281.466V703.18z" fill="#F4F464"/><path d="M422.248 562.507h191.196v191.05H422.248v-191.05zM0 562.507h140.781v140.674H0V562.507zm281.467-140.484h140.781v140.674H281.467V422.023z" fill="#F4F464"/><path d="M563.031 90.486h191.196v191.05H563.031V90.486z" fill="#F9B038"/><path d="M512.707 0h241.421v140.674H512.707V-.001z" fill="#F6842D"/><path d="M140.783 0h140.781v140.674H140.783V0z" fill="#F9E050"/><path d="M563.031 652.803h191.196v190.101H563.031V652.803z" fill="#F6842D"/><path d="M281.465 140.768h140.781v140.674H281.465V140.768z" fill="#F4F464"/><path d="M702.953 512.129h191.196v191.05H702.953v-191.05z" fill="#F4AC2B"/><path d="M702.953 371.742h191.196v191.051H702.953V371.742z" fill="#F6842D"/><path d="M702.953 230.781h191.196v191.051H702.953V230.781z" fill="#F4AC2B"/><path d="M702.953 90.487h191.196v191.05H702.953V90.487z" fill="#F6842D"/><path d="M703.904 842.904V703.181h139.829V140.674H702.952V0H1080.3c56.7 0 105.78 6.463 147.06 19.485 41.28 12.832 75.15 35.454 101.78 67.77 26.64 32.318 46.61 76.041 59.55 131.17 12.94 54.939 19.31 124.801 19.31 209.776 0 85.735-5.99 155.312-18.07 208.54-12.18 54.178-31.2 96.286-57.08 126.226a189.082 189.082 0 01-99.59 62.923c-40.43 11.406-89.42 17.11-146.77 17.11H843.638l-139.734-.096zm286.603-115.295h91.033c31.39 0 58.59-3.612 81.23-10.836a93.195 93.195 0 0055.84-43.723c14.65-21.862 25.11-52.563 31.58-92.199 7.33-39.636 10.94-92.198 10.94-157.783 0-65.394-3.8-118.337-11.03-158.734-6.38-39.636-16.84-70.717-31.39-93.339a110.347 110.347 0 00-57.08-44.673c-22.83-7.319-49.46-10.931-80.19-10.931h-90.933v612.218z" fill="#F14D34"/><path d="M563.03 562.505h140.781v140.674H563.03V562.505z" fill="#F9E050"/><path d="M422.248 0h140.781v140.674H422.248V0z" fill="#F9B038"/><path d="M422.248 703.18h140.781v139.724H422.248V703.18z" fill="#F9E050"/></g><path transform="matrix(1 0 0 -1 0 843)" fill="url(#paint0_linear_94:261)" d="M0 0h318.278v190.967H0z"/></g></g><defs><linearGradient id="paint0_linear_94:261" x1="135.153" y1="-91.793" x2="208.957" y2="137.459" gradientUnits="userSpaceOnUse"><stop stop-color="#fff"/><stop offset="1" stop-color="#fff" stop-opacity="0"/></linearGradient><clipPath id="clip0_94:261"><path fill="#fff" transform="matrix(1 0 0 -1 0 843)" d="M0 0h1408v843H0z"/></clipPath><filter id="filter0_d_94:261" x="-22.141" y="0" width="1452.28" height="922.339" filterUnits="userSpaceOnUse" color-interpolation-filters="sRGB"><feFlood flood-opacity="0" result="BackgroundImageFix"/><feColorMatrix in="SourceAlpha" values="0 0 0 0 0 0 0 0 0 0 0 0 0 0 0 0 0 0 127 0" result="hardAlpha"/><feOffset dy="57.198"/><feGaussianBlur stdDeviation="11.07"/><feColorMatrix values="0 0 0 0 0 0 0 0 0 0.0495833 0 0 0 0 0.145833 0 0 0 0.25 0"/><feBlend in2="BackgroundImageFix" result="effect1_dropShadow_94:261"/><feBlend in="SourceGraphic" in2="effect1_dropShadow_94:261" result="shape"/></filter></defs></svg>

<svg width="987" height="943" viewBox="0 0 835 843" fill="none" xmlns="http://www.w3.org/2000/svg">
<g opacity="0.2" clip-path="url(#clip0_94:261)">
<mask id="mask0_94:261" style="mask-type:alpha" maskUnits="userSpaceOnUse" x="0" y="-1" width="1408" height="844">
<path d="M563.032 230.781L754.228 230.781L754.228 421.832L563.032 421.832L563.032 230.781Z" fill="#F9E050"/>
<path d="M281.466 703.18L472.662 703.18L472.662 842.904L281.466 842.904L281.466 703.18Z" fill="#F4F464"/>
<path d="M422.248 562.507L613.444 562.507L613.444 753.557L422.248 753.557L422.248 562.507ZM-1.29987e-06 562.507L140.781 562.507L140.781 703.181L-3.42753e-07 703.181L-1.29987e-06 562.507ZM281.467 422.023L422.248 422.023L422.248 562.697L281.467 562.697L281.467 422.023Z" fill="#F4F464"/>
<path d="M563.031 90.4857L754.227 90.4857L754.227 281.536L563.031 281.536L563.031 90.4857Z" fill="#F9B038"/>
<path d="M512.707 -0.000549316L754.128 -0.000550956L754.128 140.674L512.707 140.674L512.707 -0.000549316Z" fill="#F6842D"/>
<path d="M140.783 -0.000366211L281.564 -0.000367167L281.564 140.674L140.783 140.674L140.783 -0.000366211Z" fill="#F9E050"/>
<path d="M563.031 652.803L754.227 652.803L754.227 842.904L563.031 842.904L563.031 652.803Z" fill="#F6842D"/>
<path d="M281.465 140.768L422.246 140.768L422.246 281.442L281.465 281.442L281.465 140.768Z" fill="#F4F464"/>
<path d="M702.953 512.129L894.149 512.129L894.149 703.179L702.953 703.179L702.953 512.129Z" fill="#F4AC2B"/>
<path d="M702.953 371.742L894.149 371.742L894.149 562.793L702.953 562.793L702.953 371.742Z" fill="#F6842D"/>
<path d="M702.953 230.781L894.149 230.781L894.149 421.832L702.953 421.832L702.953 230.781Z" fill="#F4AC2B"/>
<path d="M702.953 90.4865L894.149 90.4864L894.149 281.537L702.953 281.537L702.953 90.4865Z" fill="#F6842D"/>
<path d="M703.904 842.904L703.904 703.181L843.733 703.181L843.733 140.674L702.952 140.674L702.952 -0.000183105L1080.3 -0.000185669C1137 -0.000186054 1186.08 6.46331 1227.36 19.4852C1268.64 32.317 1302.51 54.9388 1329.14 87.2559C1355.78 119.573 1375.75 163.296 1388.69 218.425C1401.63 273.364 1408 343.226 1408 428.201C1408 513.936 1402.01 583.513 1389.93 636.741C1377.75 690.919 1358.73 733.027 1332.85 762.967C1307.21 794.005 1272.32 816.05 1233.26 825.89C1192.83 837.296 1143.84 843 1086.49 843L843.638 843L703.904 842.904ZM990.507 727.609L1081.54 727.609C1112.93 727.609 1140.13 723.997 1162.77 716.773C1186.43 710.121 1206.49 694.408 1218.61 673.05C1233.26 651.188 1243.72 620.487 1250.19 580.851C1257.52 541.215 1261.13 488.653 1261.13 423.068C1261.13 357.674 1257.33 304.731 1250.1 264.334C1243.72 224.698 1233.26 193.617 1218.71 170.995C1205.26 150.106 1185.15 134.364 1161.63 126.322C1138.8 119.003 1112.17 115.391 1081.44 115.391L990.507 115.391L990.507 727.609Z" fill="#F14D34"/>
<path d="M563.03 562.505L703.811 562.505L703.811 703.179L563.03 703.179L563.03 562.505Z" fill="#F9E050"/>
<path d="M422.248 6.10352e-05L563.029 6.00788e-05L563.029 140.674L422.248 140.674L422.248 6.10352e-05Z" fill="#F9B038"/>
<path d="M422.248 703.18L563.029 703.18L563.029 842.904L422.248 842.904L422.248 703.18Z" fill="#F9E050"/>
</mask>
<g mask="url(#mask0_94:261)">
<g filter="url(#filter0_d_94:261)">
<path d="M563.032 230.781L754.228 230.781L754.228 421.832L563.032 421.832L563.032 230.781Z" fill="#F9E050"/>
<path d="M281.466 703.18L472.662 703.18L472.662 842.904L281.466 842.904L281.466 703.18Z" fill="#F4F464"/>
<path d="M422.248 562.507L613.444 562.507L613.444 753.557L422.248 753.557L422.248 562.507ZM-1.29987e-06 562.507L140.781 562.507L140.781 703.181L-3.42753e-07 703.181L-1.29987e-06 562.507ZM281.467 422.023L422.248 422.023L422.248 562.697L281.467 562.697L281.467 422.023Z" fill="#F4F464"/>
<path d="M563.031 90.4857L754.227 90.4857L754.227 281.536L563.031 281.536L563.031 90.4857Z" fill="#F9B038"/>
<path d="M512.707 -0.000549316L754.128 -0.000550956L754.128 140.674L512.707 140.674L512.707 -0.000549316Z" fill="#F6842D"/>
<path d="M140.783 -0.000366211L281.564 -0.000367167L281.564 140.674L140.783 140.674L140.783 -0.000366211Z" fill="#F9E050"/>
<path d="M563.031 652.803L754.227 652.803L754.227 842.904L563.031 842.904L563.031 652.803Z" fill="#F6842D"/>
<path d="M281.465 140.768L422.246 140.768L422.246 281.442L281.465 281.442L281.465 140.768Z" fill="#F4F464"/>
<path d="M702.953 512.129L894.149 512.129L894.149 703.179L702.953 703.179L702.953 512.129Z" fill="#F4AC2B"/>
<path d="M702.953 371.742L894.149 371.742L894.149 562.793L702.953 562.793L702.953 371.742Z" fill="#F6842D"/>
<path d="M702.953 230.781L894.149 230.781L894.149 421.832L702.953 421.832L702.953 230.781Z" fill="#F4AC2B"/>
<path d="M702.953 90.4865L894.149 90.4864L894.149 281.537L702.953 281.537L702.953 90.4865Z" fill="#F6842D"/>
<path d="M703.904 842.904L703.904 703.181L843.733 703.181L843.733 140.674L702.952 140.674L702.952 -0.000183105L1080.3 -0.000185669C1137 -0.000186054 1186.08 6.46331 1227.36 19.4852C1268.64 32.317 1302.51 54.9388 1329.14 87.2559C1355.78 119.573 1375.75 163.296 1388.69 218.425C1401.63 273.364 1408 343.226 1408 428.201C1408 513.936 1402.01 583.513 1389.93 636.741C1377.75 690.919 1358.73 733.027 1332.85 762.967C1307.21 794.005 1272.32 816.05 1233.26 825.89C1192.83 837.296 1143.84 843 1086.49 843L843.638 843L703.904 842.904ZM990.507 727.609L1081.54 727.609C1112.93 727.609 1140.13 723.997 1162.77 716.773C1186.43 710.121 1206.49 694.408 1218.61 673.05C1233.26 651.188 1243.72 620.487 1250.19 580.851C1257.52 541.215 1261.13 488.653 1261.13 423.068C1261.13 357.674 1257.33 304.731 1250.1 264.334C1243.72 224.698 1233.26 193.617 1218.71 170.995C1205.26 150.106 1185.15 134.364 1161.63 126.322C1138.8 119.003 1112.17 115.391 1081.44 115.391L990.507 115.391L990.507 727.609Z" fill="#F14D34"/>
<path d="M563.03 562.505L703.811 562.505L703.811 703.179L563.03 703.179L563.03 562.505Z" fill="#F9E050"/>
<path d="M422.248 6.10352e-05L563.029 6.00788e-05L563.029 140.674L422.248 140.674L422.248 6.10352e-05Z" fill="#F9B038"/>
<path d="M422.248 703.18L563.029 703.18L563.029 842.904L422.248 842.904L422.248 703.18Z" fill="#F9E050"/>
</g>
<rect width="318.278" height="190.967" transform="matrix(1 0 0 -1 0 843)" fill="url(#paint0_linear_94:261)"/>
</g>
</g>
<defs>
<filter id="filter0_d_94:261" x="-22.1411" y="-0.000488281" width="1452.28" height="922.339" filterUnits="userSpaceOnUse" color-interpolation-filters="sRGB">
<feFlood flood-opacity="0" result="BackgroundImageFix"/>
<feColorMatrix in="SourceAlpha" type="matrix" values="0 0 0 0 0 0 0 0 0 0 0 0 0 0 0 0 0 0 127 0" result="hardAlpha"/>
<feOffset dy="57.1978"/>
<feGaussianBlur stdDeviation="11.0705"/>
<feColorMatrix type="matrix" values="0 0 0 0 0 0 0 0 0 0.0495833 0 0 0 0 0.145833 0 0 0 0.25 0"/>
<feBlend mode="normal" in2="BackgroundImageFix" result="effect1_dropShadow_94:261"/>
<feBlend mode="normal" in="SourceGraphic" in2="effect1_dropShadow_94:261" result="shape"/>
</filter>
<linearGradient id="paint0_linear_94:261" x1="135.153" y1="-91.7933" x2="208.957" y2="137.459" gradientUnits="userSpaceOnUse">
<stop stop-color="white"/>
<stop offset="1" stop-color="white" stop-opacity="0"/>
</linearGradient>
<clipPath id="clip0_94:261">
<rect width="1408" height="843" fill="white" transform="matrix(1 0 0 -1 0 843)"/>
</clipPath>
</defs>
</svg>
